flaticon/interaction/stopwatch-14.svg

<svg xmlns="http://www.w3.org/2000/svg" width="32" height="32" viewBox="0 0 24 24">
    <path d="M11.601562 24L21.199219 24 21.199219 14.398438 11.601562 14.398438zM12.398438 15.199219L16 15.199219 16 20.234375 14.28125 18.515625 13.71875 19.082031 16.398438 21.765625 19.082031 19.082031 18.515625 18.515625 16.800781 20.234375 16.800781 15.199219 20.398438 15.199219 20.398438 23.199219 12.398438 23.199219zM12.464844 13.59375C12.5 13.597656 12.539062 13.601562 12.574219 13.601562 12.953125 13.601562 13.3125 13.453125 13.582031 13.183594 13.878906 12.886719 14.027344 12.480469 13.996094 12.0625 13.960938 11.648438 13.75 11.269531 13.410156 11.019531L8.234375 7.277344C8.074219 7.160156 7.855469 7.179688 7.71875 7.316406 7.578125 7.457031 7.5625 7.675781 7.675781 7.835938L11.421875 13.011719C11.667969 13.351562 12.046875 13.5625 12.464844 13.59375zM9.785156 9.382812L12.941406 11.667969C13.089844 11.777344 13.183594 11.941406 13.199219 12.125 13.210938 12.308594 13.144531 12.488281 13.015625 12.617188 12.886719 12.746094 12.710938 12.8125 12.527344 12.796875 12.34375 12.785156 12.175781 12.691406 12.070312 12.542969zM9.785156 9.382812"/>
    <path d="M12 0C11.777344 0 11.601562.179688 11.601562.398438L11.601562 5.714844C11.601562 5.9375 11.777344 6.117188 12 6.117188 12.222656 6.117188 12.398438 5.9375 12.398438 5.714844L12.398438.808594C18.390625 1.019531 23.199219 5.957031 23.199219 12 23.199219 13.386719 22.945312 14.746094 22.445312 16.039062 22.367188 16.242188 22.46875 16.476562 22.675781 16.554688 22.722656 16.574219 22.773438 16.582031 22.820312 16.582031 22.980469 16.582031 23.132812 16.484375 23.191406 16.324219 23.726562 14.941406 24 13.484375 24 12 24 5.382812 18.617188 0 12 0zM9.296875 22.871094C4.292969 21.632812.800781 17.160156.800781 12 .800781 9.015625 1.960938 6.207031 4.066406 4.09375 4.222656 3.9375 4.222656 3.683594 4.066406 3.527344 3.910156 3.371094 3.65625 3.371094 3.5 3.527344 1.242188 5.792969 0 8.804688 0 12 0 17.53125 3.742188 22.320312 9.105469 23.648438 9.136719 23.65625 9.167969 23.660156 9.203125 23.660156 9.382812 23.660156 9.542969 23.539062 9.589844 23.355469 9.640625 23.140625 9.511719 22.925781 9.296875 22.871094zM9.296875 22.871094"/>
</svg>

<svg xmlns="http://www.w3.org/2000/svg" width="32" height="32" viewBox="0 0 24 24">
    <path d="M11.602 24h9.597v-9.602h-9.597zm.796-8.8H16v5.034l-1.719-1.718-.562.566 2.68 2.684 2.683-2.684-.566-.566-1.715 1.718V15.2h3.597v8h-8zm0 0M12.465 13.594c.035.004.074.008.11.008a1.427 1.427 0 0 0 .836-2.582L8.233 7.277a.397.397 0 0 0-.515.04.403.403 0 0 0-.043.519l3.746 5.176c.246.34.625.55 1.043.582zm-2.68-4.211l3.156 2.285c.149.11.243.273.258.457a.638.638 0 0 1-.183.492.613.613 0 0 1-.489.18.608.608 0 0 1-.457-.254zm0 0"/>
    <path d="M12 0a.398.398 0 0 0-.398.398v5.317a.398.398 0 1 0 .796 0V.809C18.391 1.019 23.2 5.957 23.2 12c0 1.387-.254 2.746-.754 4.04a.4.4 0 0 0 .746.284c.536-1.383.809-2.84.809-4.324 0-6.617-5.383-12-12-12zm0 0M9.297 22.871A11.173 11.173 0 0 1 .8 12c0-2.984 1.16-5.793 3.265-7.906a.4.4 0 0 0-.566-.567A11.93 11.93 0 0 0 0 12c0 5.531 3.742 10.32 9.105 11.648a.4.4 0 0 0 .191-.777zm0 0"/>
</svg>
